SVG-Icons/Technical/Grafana/grafana-icon-metrics-yellow-circle-improve-dx.svg

<svg width="40" height="40" viewBox="0 0 40 40" fill="none" xmlns="http://www.w3.org/2000/svg">
<rect width="40" height="40" rx="20" fill="#FDC9BE"/>
<path fill-rule="evenodd" clip-rule="evenodd" d="M28.5 27.5C28.5 28.0523 28.0523 28.5 27.5 28.5H22.5C21.9477 28.5 21.5 28.0523 21.5 27.5V20.5C21.5 19.9477 21.9477 19.5 22.5 19.5H27.5C28.0523 19.5 28.5 19.9477 28.5 20.5V27.5Z" stroke="#EF5B3E" stroke-width="1.5" stroke-linecap="round" stroke-linejoin="round"/>
<path fill-rule="evenodd" clip-rule="evenodd" d="M28.5 15.5C28.5 16.0523 28.0523 16.5 27.5 16.5H22.5C21.9477 16.5 21.5 16.0523 21.5 15.5V12.5C21.5 11.9477 21.9477 11.5 22.5 11.5H27.5C28.0523 11.5 28.5 11.9477 28.5 12.5V15.5Z" stroke="#EF5B3E" stroke-width="1.5" stroke-linecap="round" stroke-linejoin="round"/>
<path fill-rule="evenodd" clip-rule="evenodd" d="M11.5 12.5C11.5 11.9477 11.9477 11.5 12.5 11.5H17.5C18.0523 11.5 18.5 11.9477 18.5 12.5V19.5C18.5 20.0523 18.0523 20.5 17.5 20.5H12.5C11.9477 20.5 11.5 20.0523 11.5 19.5V12.5Z" stroke="#EF5B3E" stroke-width="1.5" stroke-linecap="round" stroke-linejoin="round"/>
<path fill-rule="evenodd" clip-rule="evenodd" d="M11.5 24.5C11.5 23.9477 11.9477 23.5 12.5 23.5H17.5C18.0523 23.5 18.5 23.9477 18.5 24.5V27.5C18.5 28.0523 18.0523 28.5 17.5 28.5H12.5C11.9477 28.5 11.5 28.0523 11.5 27.5V24.5Z" stroke="#EF5B3E" stroke-width="1.5" stroke-linecap="round" stroke-linejoin="round"/>
<path fill-rule="evenodd" clip-rule="evenodd" d="M8.5 9.5C8.5 8.94772 8.94772 8.5 9.5 8.5H30.5C31.0523 8.5 31.5 8.94772 31.5 9.5V30.5C31.5 31.0523 31.0523 31.5 30.5 31.5H9.5C8.94772 31.5 8.5 31.0523 8.5 30.5V9.5Z" stroke="#EF5B3E" stroke-width="1.5" stroke-linecap="round" stroke-linejoin="round"/>
</svg>

<svg xmlns="http://www.w3.org/2000/svg" fill="none" viewBox="0 0 40 40"><rect width="40" height="40" fill="#FDC9BE" rx="20"/><path stroke="#EF5B3E" stroke-linecap="round" stroke-linejoin="round" stroke-width="1.5" d="M28.5 27.5a1 1 0 0 1-1 1h-5a1 1 0 0 1-1-1v-7a1 1 0 0 1 1-1h5a1 1 0 0 1 1 1v7ZM28.5 15.5a1 1 0 0 1-1 1h-5a1 1 0 0 1-1-1v-3a1 1 0 0 1 1-1h5a1 1 0 0 1 1 1v3ZM11.5 12.5a1 1 0 0 1 1-1h5a1 1 0 0 1 1 1v7a1 1 0 0 1-1 1h-5a1 1 0 0 1-1-1v-7ZM11.5 24.5a1 1 0 0 1 1-1h5a1 1 0 0 1 1 1v3a1 1 0 0 1-1 1h-5a1 1 0 0 1-1-1v-3Z" clip-rule="evenodd"/><path stroke="#EF5B3E" stroke-linecap="round" stroke-linejoin="round" stroke-width="1.5" d="M8.5 9.5a1 1 0 0 1 1-1h21a1 1 0 0 1 1 1v21a1 1 0 0 1-1 1h-21a1 1 0 0 1-1-1v-21Z" clip-rule="evenodd"/></svg>
